X: 29979
T: Ocean View
R: reel
M: 4/4
K: Bminor
Bf f2 gefd|efed cdec|Bf f2 gefd|edcd edcA|
Bf f2 gefd|e2 ed cdec|Bf f2 gefd|edcd edcA||
BFBd cefe|d2 df edcA|BFBd cefe|dfed cA A2|
BFBd cefe|d2 df edcA|BFBd cefe|dBcA B2 BA||
GBdB cede|f2 fe dcBA|GBdB ceag|fdec d2dF|
GBdB cede|f2 fe dcBA|GBdB ceag|fdec dBcA||

